X:1
T:Remsen, CM
T:Joseph Perry Holbrook, 1862
T:Remsen, CM
T:Public Domain
C:Joseph Perry Holbrook, 1862
Z:Public Domain
%%score ( 1 2 ) ( 3 4 )
L:1/8
M:6/4
K:Ab
V:1 treble 
V:2 treble 
V:3 bass 
V:4 bass 
V:1
 [CE]2 | [Ec]4 [Ec]2 [Ec]4 [CB]2 | [DA]4 [DF]2 [DA]4 [Fd]2 | [Ec]4 [Ec]2 c2 B2 [_DA]2 | %4
 ([E-B]6 [Ee]4) [DE]2 | (C2 E2) [Ec]2 [Ec]4 [CB]2 | [DA]4 [DF]2 [DA]4 [Fd]2 | %7
 [Ec]4 [Ae]2 [GB]4 [Ec]2 | [EA]6- [EA]4 |] %9
V:2
 x2 | x12 | x12 | x6 =D4 x2 | x12 | c4 x8 | x12 | x12 | x10 |] %9
V:3
 [A,,A,]2 | [A,,A,]4 [A,,A,]2 [A,,A,]4 [A,,_G,]2 | [D,F,]4 [D,A,]2 [D,F,]4 [D,A,]2 | %3
 [A,,A,]4 A,2 [F,A,]4 [F,A,]2 | [E,G,]6- [E,G,]4 [E,B,]2 | [A,,A,]4 [A,,A,]2 [A,,A,]4 [A,,_G,]2 | %6
 [D,F,]4 [D,A,]2 [D,F,]4 [D,A,]2 | [E,A,]4 [E,C]2 [E,D]4 [E,E]2 | [A,,C]6- [A,,C]4 |] %9
V:4
 x2 | x12 | x12 | x4 A,2 x6 | x12 | x12 | x12 | x12 | x10 |] %9

